korla/apps/symbolic/help-browser-symbolic.svg

<svg style="clip-rule:evenodd;fill-rule:evenodd;stroke-linejoin:round;stroke-miterlimit:2" version="1.1" viewBox="0 0 16 16" xmlns="http://www.w3.org/2000/svg">
 <path d="m8 12.799c0.627 0 1.136 0.509 1.136 1.136 0 0.628-0.509 1.137-1.136 1.137s-1.136-0.509-1.136-1.137c0-0.627 0.509-1.136 1.136-1.136zm3.07-5.549-0.9 0.92c-0.72 0.73-1.18 1.342-1.17 2.528 0.01 1.194-1.973 1.104-2 0-0.027-1.11 0.45-2.298 1.17-3.028l1.24-1.26c0.37-0.36 0.59-0.86 0.59-1.41 0-1.1-0.9-2-2-2s-2 0.9-2 2c-0.646 0.873-1.311 0.948-2 0 0-2.21 1.79-4 4-4s4 1.79 4 4c0 0.88-0.36 1.68-0.93 2.25z" style="fill-rule:nonzero;fill:rgb(223,223,223)"/>
</svg>

<svg xmlns="http://www.w3.org/2000/svg" width="16" height="16" version="1.1">
 <path style="fill:#dfdfdf" d="M 9,15 H 7 V 13 H 9 Z M 11.07,7.25 10.17,8.17 C 9.45,8.9 9,9.5 9,11 H 7 V 10.5 C 7,9.4 7.45,8.4 8.17,7.67 L 9.41,6.41 C 9.78,6.05 10,5.55 10,5 10,3.9 9.1,3 8,3 6.9,3 6,3.9 6,5 H 4 C 4,2.79 5.79,1 8,1 10.21,1 12,2.79 12,5 12,5.88 11.64,6.68 11.07,7.25 Z"/>
</svg>
